icons/stickynote.svg

<svg xmlns="http://www.w3.org/2000/svg" viewBox="0 0 24 24" fill="currentColor">
  <path d="M3.75 9c0-2.88579 2.36421-5.25 5.25-5.25h6c2.8858 0 5.25 2.36421 5.25 5.25v4.3858c-.4532-.1005-.913-.1358-1.3501-.1358-3.7143 0-6.75 3.0358-6.75 6.75l-.0001.0383c-.0001.0606-.0002.1323.0012.2117H9c-2.97764 0-5.25-2.356-5.25-5.25V9Zm9.9022 11.25H15c2.8858 0 5.25-2.3642 5.25-5.25v-.0596c-.3936-.1336-.8509-.1904-1.3501-.1904-2.8858 0-5.25 2.3642-5.25 5.25 0 .0883.0005.1719.0023.25ZM9 2.25C5.28579 2.25 2.25 5.28579 2.25 9v6c0 3.706 2.92764 6.75 6.75 6.75h6c3.7142 0 6.75-3.0358 6.75-6.75V9c0-3.71421-3.0358-6.75-6.75-6.75H9Z"/>
</svg>

<svg width="24" height="24" viewBox="0 0 24 24" fill="none" xmlns="http://www.w3.org/2000/svg">
<path fill-rule="evenodd" clip-rule="evenodd" d="M3.75 9C3.75 6.11421 6.11421 3.75 9 3.75H15C17.8858 3.75 20.25 6.11421 20.25 9V13.3858C19.7968 13.2853 19.337 13.25 18.8999 13.25C15.1856 13.25 12.1499 16.2858 12.1499 20L12.1498 20.0383C12.1497 20.0989 12.1496 20.1706 12.151 20.25H9C6.02236 20.25 3.75 17.894 3.75 15V9ZM13.6522 20.25H15C17.8858 20.25 20.25 17.8858 20.25 15V14.9404C19.8564 14.8068 19.3991 14.75 18.8999 14.75C16.0141 14.75 13.6499 17.1142 13.6499 20C13.6499 20.0883 13.6504 20.1719 13.6522 20.25ZM9 2.25C5.28579 2.25 2.25 5.28579 2.25 9V15C2.25 18.706 5.17764 21.75 9 21.75H15C18.7142 21.75 21.75 18.7142 21.75 15V9C21.75 5.28579 18.7142 2.25 15 2.25H9Z" fill="black"/>
</svg>
